X: 1
T: reel du lievre
O: Quebec
R: reel
Z: 2010 John Chambers <jc:trillian.mit.edu>
M: C|
L: 1/8
K: G
|:"G"gage dBG(f | g2)fg "Am"afdf | "G"(ga)(ge) "Am"ddBd | "D7"cBAd "G"BGGg |
| "G"gage dBG(f | g2)fg "Am"afdf | "G"(ga)(ge) "Am"ddBd |1 "D7"cBAF "G"G3g :|2 "D7"cBAF "G"GAB(G ||
|:"G"DG)BG "(C)"cG"(G)"B(G | dG)BG "Am"E(E=FE) | "G"(DGB)G "Am"cGBG | "D7"AcAF "G"GAB(G |
| "G"DG)BG cGB(G | DG)BG "Am"E(E=FE) | "G"(DG)(Bd) "Am"(cB)(cB) |1 "D7"AFDF "G"G3D :|2 "D7"AFDF "G"G4 |]
